X: 2
T: Soldier's Joy
R: hornpipe
M: 4/4
L: 1/8
K: Dmaj
AB|:A2F2 D2F2|A2 d2 d2 AB|A2F2 D2F2|E2EF E2 AB||A2F2 D2F2|A2 d2 d2 de|fafd egec|d2 d2 d4:|


Tune 1356	Setting 14702

